X: 1736
T: Apple Blossom
R: reel
M: 4/4
K: Dmajor
"D" a4 a2 ae|fedf ed- d2|"G" b4 b2 ae|"D" fedf ed f2|
"D" a4 a2 ae|fedf edBA|d2 (3BcB A2 FE|"A" DFED "D" B,D- D2:|
|:"D" A,2 A,B, D3 E|FEDE FE D2|A,2 A,B, D2 DE|FE D2 "G" B,2 A,2|
"D" A,2 A,B, D2 DE|FEGE FA- A2|d2 (3BcB A2 FE|"A" DFED "D" B,D- D2:|

